img/git_logo.svg

<svg height="113.92483" viewBox="0 0 113.92483 113.92306" width="113.92483" xml:space="preserve" xmlns="http://www.w3.org/2000/svg"><defs><clipPath id="clipPath18"><path d="m0,0h2183.73v912h-2183.73v-912z"></path></clipPath></defs><g fill="#f34f29" transform="matrix(1.25,0,0,-1.25,-6.1e-4,113.92294)"><g fill="#f34f29" transform="scale(.1)"><g clip-path="url(#clipPath18)" fill="#f34f29"><path d="m894.215,496.285-397.938,397.91c-22.898,22.918-60.066,22.918-82.996,0l-82.629-82.636 104.817-104.821c24.367,8.227 52.297,2.711 71.711-16.707 19.515-19.539 24.992-47.707 16.558-72.156l101.024-101.02c24.441,8.422 52.64,2.981 72.156-16.57 27.285-27.277 27.285-71.476 0-98.762s-71.488-27.293-98.789,0c-20.516,20.532-25.59,50.676-15.199,75.954l-94.215,94.218-.008-247.929c6.652-3.293 12.93-7.688 18.473-13.207 27.277-27.274 27.277-71.465 0-98.782-27.285-27.273-71.504-27.273-98.762,0-27.281,27.317-27.281,71.508 0,98.782 6.742,6.73 14.543,11.824 22.867,15.238v250.23c-8.324,3.403-16.113,8.461-22.867,15.239-20.664,20.648-25.641,50.976-15.043,76.351l-103.324,103.344-272.8518-272.836c-22.9258-22.937-22.9258-60.105 0-83.027l397.9338-397.9105c22.91-22.918 60.066-22.918 83.008,0l396.074,396.0665c22.918,22.93 22.918,60.109 0,83.031" fill="#f34f29"></path></g></g></g></svg>

<?xml version="1.0" encoding="UTF-8" standalone="no"?>
<!-- Created with Inkscape (http://www.inkscape.org/) -->

<svg
   xmlns:dc="http://purl.org/dc/elements/1.1/"
   xmlns:cc="http://creativecommons.org/ns#"
   xmlns:rdf="http://www.w3.org/1999/02/22-rdf-syntax-ns#"
   xmlns:svg="http://www.w3.org/2000/svg"
   xmlns="http://www.w3.org/2000/svg"
   version="1.1"
   width="100%"
   height="100%"
   viewBox="0 0 113.92483 113.92306"
   id="svg3051"
   xml:space="preserve"><metadata
     id="metadata3068"><rdf:RDF><cc:Work
         rdf:about=""><dc:format>image/svg+xml</dc:format><dc:type
           rdf:resource="http://purl.org/dc/dcmitype/StillImage" /><dc:title></dc:title></cc:Work></rdf:RDF></metadata><defs
     id="defs3053"><clipPath
       id="clipPath18"><path
         d="M 0,0 H 2183.73 V 912 H 0 V 0 z"
         id="path3056" /></clipPath></defs><g
     transform="matrix(1.25,0,0,-1.25,-6.1e-4,113.92294)"
     id="g3058"
     style="fill:#f34f29;fill-opacity:1"><g
       transform="scale(0.1,0.1)"
       id="g3060"
       style="fill:#f34f29;fill-opacity:1"><g
         clip-path="url(#clipPath18)"
         id="g3062"
         style="fill:#f34f29;fill-opacity:1"><path
           d="m 894.215,496.285 -397.938,397.91 c -22.898,22.918 -60.066,22.918 -82.996,0 L 330.652,811.559 435.469,706.738 c 24.367,8.227 52.297,2.711 71.711,-16.707 19.515,-19.539 24.992,-47.707 16.558,-72.156 l 101.024,-101.02 c 24.441,8.422 52.64,2.981 72.156,-16.57 27.285,-27.277 27.285,-71.476 0,-98.762 -27.285,-27.286 -71.488,-27.293 -98.789,0 -20.516,20.532 -25.59,50.676 -15.199,75.954 l -94.215,94.218 -0.008,-247.929 c 6.652,-3.293 12.93,-7.688 18.473,-13.207 27.277,-27.274 27.277,-71.465 0,-98.782 -27.285,-27.273 -71.504,-27.273 -98.762,0 -27.281,27.317 -27.281,71.508 0,98.782 6.742,6.73 14.543,11.824 22.867,15.238 v 250.23 c -8.324,3.403 -16.113,8.461 -22.867,15.239 -20.664,20.648 -25.641,50.976 -15.043,76.351 L 290.051,770.961 17.1992,498.125 c -22.9258,-22.937 -22.9258,-60.105 0,-83.027 L 415.133,17.1875 c 22.91,-22.918 60.066,-22.918 83.008,0 L 894.215,413.254 c 22.918,22.93 22.918,60.109 0,83.031"
           id="path3064"
           style="fill:#f34f29;fill-opacity:1" /></g></g></g></svg>
